assets/img/icons/sp-white.svg

<?xml version="1.0" encoding="utf-8"?>
<!-- Generator: Adobe Illustrator 19.2.1, SVG Export Plug-In . SVG Version: 6.00 Build 0)  -->
<svg version="1.1" id="Layer_1" xmlns="http://www.w3.org/2000/svg" xmlns:xlink="http://www.w3.org/1999/xlink" x="0px" y="0px"
	 viewBox="0 0 100 100" style="enable-background:new 0 0 100 100;" xml:space="preserve">
<style type="text/css">
	.st0{opacity:0.6;}
	.st1{fill:#FFFFFF;}
</style>
<title>SP-white</title>
<g class="st0">
	<path class="st1" d="M49.2,53.8h12.3v-7H49.2l-4.1-7l6.3-10.9l-6.1-3.5l-6.3,11h-8l0.2-0.1L24.7,25l-6.1,3.5l6.5,11.2l0,0l-3.7,6.6
		H8.1v7h12.7l3.9,6.8h-0.1l-6.5,11.1l6.1,3.5l6.1-10.6h8.2L44.9,75l6.1-3.5L45,61L49.2,53.8z M27.2,50.3l4-6.9h8l4,6.9l-4,6.9h-8
		L27.2,50.3z"/>
	<rect x="31.3" y="12.5" class="st1" width="7" height="18.7"/>
	<rect x="7.5" y="26.1" transform="matrix(0.5 -0.866 0.866 0.5 -25.5593 27.4886)" class="st1" width="7" height="19.6"/>
	<rect x="1.7" y="60.1" transform="matrix(0.866 -0.5 0.5 0.866 -30.2971 14.059)" class="st1" width="18.8" height="7"/>
	<rect x="31.3" y="68.7" class="st1" width="7" height="18.8"/>
	<rect x="55.4" y="54.8" transform="matrix(0.5 -0.866 0.866 0.5 -26.2326 83.1133)" class="st1" width="7" height="19"/>
	<rect x="49.9" y="32.8" transform="matrix(0.866 -0.5 0.5 0.866 -10.1453 34.701)" class="st1" width="19.7" height="7"/>
	<rect x="67.2" y="46.8" class="st1" width="6.9" height="6.9"/>
	<rect x="80.2" y="46.8" class="st1" width="6.9" height="6.9"/>
	<rect x="92.3" y="46.8" class="st1" width="6.9" height="6.9"/>
</g>
</svg>

<svg id="Layer_1" data-name="Layer 1" xmlns="http://www.w3.org/2000/svg" viewBox="0 0 100 100"><defs><style>.cls-1{opacity:0.6;}.cls-2{fill:#fff;}</style></defs><title>sp-white</title><g class="cls-1"><path class="cls-2" d="M49.2,53.8H61.5v-7H49.2l-4.1-7,6.3-10.9-6.1-3.5L39,36.4H31l0.2-.1L24.7,25l-6.1,3.5,6.5,11.2h0l-3.7,6.6H8.1v7H20.8l3.9,6.8H24.6L18.1,71.2l6.1,3.5,6.1-10.6h8.2L44.9,75,51,71.5,45,61Zm-22-3.5,4-6.9h8l4,6.9-4,6.9h-8Z"/><rect class="cls-2" x="31.3" y="12.5" width="7" height="18.7"/><rect class="cls-2" x="7.53" y="26.11" width="7" height="19.6" transform="translate(-25.59 27.51) rotate(-60)"/><rect class="cls-2" x="1.72" y="60.09" width="18.8" height="7" transform="translate(-30.3 14.08) rotate(-30)"/><rect class="cls-2" x="31.3" y="68.7" width="7" height="18.8"/><rect class="cls-2" x="55.4" y="54.76" width="7" height="19" transform="translate(-26.2 83.14) rotate(-60)"/><rect class="cls-2" x="49.9" y="32.76" width="19.7" height="7" transform="translate(-10.13 34.73) rotate(-30)"/><rect class="cls-2" x="67.2" y="46.8" width="6.9" height="6.9"/><rect class="cls-2" x="80.2" y="46.8" width="6.9" height="6.9"/><rect class="cls-2" x="92.3" y="46.8" width="6.9" height="6.9"/></g></svg>
